X:69
T:Trip to Flanders, A
M:2/4
L:1/8
B:Thompson's Compleat Collection of 200 Favourite Country Dances, vol. 3 (London, 1773)
Z:Transcribed and edited by Flynn Titford-Mock, 2007
Z:abc's:AK/Fiddler's Companion
K:G
gg | gf/e/ | dd d2 | {c}BA/G/ FG | A/G/F/E/ D2 | gg gf/e/ | dd d2 | BA/G/ DF | GG G2 :|
|: BBB>A | ccc>B | dd dc/B/ | (A/G/F/E/) D2 | BBB>A | ccc>B | (e/f/g/e/) (d/B/A/G/) | DF G2 :|

